X:2105
T:Piobaireachd Triplings (GDE Gracenotes)
O:Kevin Fraser
Z:Kevin Fraser
Q:1/4=120
K:HP
M:4/4
L:1/16
R:March
V:gstem=up stem=down
%%MIDI gracedivider 4
%%MIDI gchord
%%MIDI beatstring
[| (3:2{g}G{d}G{e}G e8 (3:2{g}A{d}A{e}A e8 ||
w:  him dam em de      hin dan en de    
|| (3:2{g}A{d}A{e}A A8 (3:2{g}A{d}A{e}A B8 | (3:2{g}A{d}A{e}A c8  (3:2{g}A{d}A{e}A d8 |
w:   hin da en dan      hin da en to       | hin da en do        hin da en da |
| (3:2{g}A{d}A{e}A e8 (3:2{g}A{d}A{e}A f8 |  (3:2{g}A{d}A{e}A g8 (3:2{g}A{d}A{e}A a8 |]
w: hin da en de      hin da en dhe|hin da en di      hin da en I|
